gnome/icons/Varda/apps/scalable/utilities-system-monitor.svg

<?xml version="1.0" encoding="UTF-8" standalone="no"?>
<svg
   xmlns:dc="http://purl.org/dc/elements/1.1/"
   xmlns:cc="http://creativecommons.org/ns#"
   xmlns:rdf="http://www.w3.org/1999/02/22-rdf-syntax-ns#"
   xmlns:svg="http://www.w3.org/2000/svg"
   xmlns="http://www.w3.org/2000/svg"
   xmlns:sodipodi="http://sodipodi.sourceforge.net/DTD/sodipodi-0.dtd"
   xmlns:inkscape="http://www.inkscape.org/namespaces/inkscape"
   width="64px"
   height="64px"
   viewBox="0 0 64 64"
   version="1.1"
   id="svg16"
   sodipodi:docname="utilities-system-monitor.svg"
   inkscape:version="1.0.2 (e86c870879, 2021-01-15)">
  <metadata
     id="metadata20">
    <rdf:RDF>
      <cc:Work
         rdf:about="">
        <dc:format>image/svg+xml</dc:format>
        <dc:type
           rdf:resource="http://purl.org/dc/dcmitype/StillImage" />
      </cc:Work>
    </rdf:RDF>
  </metadata>
  <sodipodi:namedview
     pagecolor="#ffffff"
     bordercolor="#666666"
     borderopacity="1"
     objecttolerance="10"
     gridtolerance="10"
     guidetolerance="10"
     inkscape:pageopacity="0"
     inkscape:pageshadow="2"
     inkscape:window-width="2560"
     inkscape:window-height="1403"
     id="namedview18"
     showgrid="false"
     inkscape:zoom="15.75"
     inkscape:cx="32"
     inkscape:cy="32"
     inkscape:window-x="0"
     inkscape:window-y="0"
     inkscape:window-maximized="1"
     inkscape:current-layer="surface1" />
  <defs
     id="defs7">
    <radialGradient
       id="radial0"
       gradientUnits="userSpaceOnUse"
       cx="254"
       cy="42.999756"
       fx="254"
       fy="42.999756"
       r="232.833328"
       gradientTransform="matrix(0.125,0,0,0.113636,-0.00000115417,27.363663)">
      <stop
         offset="0"
         style="stop-color:rgb(40.000001%,73.333335%,41.568628%);stop-opacity:0.470588;"
         id="stop2" />
      <stop
         offset="1"
         style="stop-color:rgb(40.000001%,73.333335%,41.568628%);stop-opacity:0;"
         id="stop4" />
    </radialGradient>
  </defs>
  <g
     id="surface1">
    <path
       style="fill:#0c0e11;fill-opacity:1;fill-rule:nonzero;stroke:none"
       d="m 5.292969,5.792969 h 52.914062 c 1.460938,0 2.648438,1.183593 2.648438,2.644531 v 47.625 c 0,1.460938 -1.1875,2.644531 -2.648438,2.644531 H 5.292969 c -1.460938,0 -2.648438,-1.183593 -2.648438,-2.644531 V 8.4375 c 0,-1.460938 1.1875,-2.644531 2.648438,-2.644531 z m 0,0"
       id="path9" />
    <path
       style="fill:#733447;fill-opacity:1;fill-rule:nonzero;stroke:none"
       d="m 29.101562,15.375 c -0.40625,0 -0.773437,0.25 -0.925781,0.628906 L 18.324219,40.632812 12.753906,31.71875 C 12.570312,31.425781 12.25,31.25 11.90625,31.25 H 7.9375 c -0.359375,-0.0039 -0.695312,0.183594 -0.878906,0.496094 -0.179688,0.3125 -0.179688,0.695312 0,1.007812 0.183594,0.3125 0.519531,0.5 0.878906,0.496094 h 3.414062 l 6.320313,10.113281 c 0.199219,0.320313 0.5625,0.5 0.9375,0.464844 0.375,-0.03125 0.699219,-0.273437 0.839844,-0.625 L 29.09375,19.09375 40.078125,47.167969 c 0.152344,0.378906 0.519531,0.632812 0.929687,0.632812 0.410157,0.0039 0.777344,-0.246093 0.929688,-0.628906 l 7.113281,-17.773437 1.648438,3.296874 C 50.867188,33.035156 51.214844,33.25 51.59375,33.25 h 3.96875 c 0.359375,0.0039 0.695312,-0.183594 0.878906,-0.496094 0.179688,-0.3125 0.179688,-0.695312 0,-1.007812 -0.183594,-0.3125 -0.519531,-0.5 -0.878906,-0.496094 H 52.210938 L 49.84375,26.511719 c -0.175781,-0.351563 -0.542969,-0.570313 -0.9375,-0.550781 -0.394531,0.01562 -0.742188,0.261718 -0.886719,0.625 l -7,17.5 L 30.035156,16.011719 C 29.886719,15.625 29.515625,15.375 29.101562,15.375 Z m 0,0"
       id="path13" />
  </g>
</svg>

<?xml version="1.0" encoding="UTF-8"?>
<svg xmlns="http://www.w3.org/2000/svg" xmlns:xlink="http://www.w3.org/1999/xlink" width="64px" height="64px" viewBox="0 0 64 64" version="1.1">
<defs>
<radialGradient id="radial0" gradientUnits="userSpaceOnUse" cx="254" cy="42.999756" fx="254" fy="42.999756" r="232.833328" gradientTransform="matrix(0.125,0,0,0.113636,-0.00000115417,27.363663)">
<stop offset="0" style="stop-color:rgb(40.000001%,73.333335%,41.568628%);stop-opacity:0.470588;"/>
<stop offset="1" style="stop-color:rgb(40.000001%,73.333335%,41.568628%);stop-opacity:0;"/>
</radialGradient>
</defs>
<g id="surface1">
<path style=" stroke:none;fill-rule:nonzero;fill:rgb(25.882354%,25.882354%,25.882354%);fill-opacity:1;" d="M 5.292969 5.792969 L 58.207031 5.792969 C 59.667969 5.792969 60.855469 6.976562 60.855469 8.4375 L 60.855469 56.0625 C 60.855469 57.523438 59.667969 58.707031 58.207031 58.707031 L 5.292969 58.707031 C 3.832031 58.707031 2.644531 57.523438 2.644531 56.0625 L 2.644531 8.4375 C 2.644531 6.976562 3.832031 5.792969 5.292969 5.792969 Z M 5.292969 5.792969 "/>
<path style=" stroke:none;fill-rule:nonzero;fill:url(#radial0);" d="M 11.246094 5.792969 L 11.246094 11.746094 L 2.644531 11.746094 L 2.644531 13.066406 L 11.246094 13.066406 L 11.246094 21.667969 L 2.644531 21.667969 L 2.644531 22.988281 L 11.246094 22.988281 L 11.246094 31.589844 L 2.644531 31.589844 L 2.644531 32.910156 L 11.246094 32.910156 L 11.246094 41.511719 L 2.644531 41.511719 L 2.644531 42.832031 L 11.246094 42.832031 L 11.246094 51.433594 L 2.644531 51.433594 L 2.644531 52.753906 L 11.246094 52.753906 L 11.246094 58.707031 L 12.566406 58.707031 L 12.566406 52.753906 L 21.167969 52.753906 L 21.167969 58.707031 L 22.488281 58.707031 L 22.488281 52.753906 L 31.089844 52.753906 L 31.089844 58.707031 L 32.410156 58.707031 L 32.410156 52.753906 L 41.011719 52.753906 L 41.011719 58.707031 L 42.332031 58.707031 L 42.332031 52.753906 L 50.933594 52.753906 L 50.933594 58.707031 L 52.253906 58.707031 L 52.253906 52.753906 L 60.855469 52.753906 L 60.855469 51.433594 L 52.253906 51.433594 L 52.253906 42.832031 L 60.855469 42.832031 L 60.855469 41.511719 L 52.253906 41.511719 L 52.253906 32.910156 L 60.855469 32.910156 L 60.855469 31.589844 L 52.253906 31.589844 L 52.253906 22.988281 L 60.855469 22.988281 L 60.855469 21.667969 L 52.253906 21.667969 L 52.253906 13.066406 L 60.855469 13.066406 L 60.855469 11.746094 L 52.253906 11.746094 L 52.253906 5.792969 L 50.933594 5.792969 L 50.933594 11.746094 L 42.332031 11.746094 L 42.332031 5.792969 L 41.011719 5.792969 L 41.011719 11.746094 L 32.410156 11.746094 L 32.410156 5.792969 L 31.089844 5.792969 L 31.089844 11.746094 L 22.488281 11.746094 L 22.488281 5.792969 L 21.167969 5.792969 L 21.167969 11.746094 L 12.566406 11.746094 L 12.566406 5.792969 Z M 12.566406 13.066406 L 21.167969 13.066406 L 21.167969 21.667969 L 12.566406 21.667969 Z M 22.488281 13.066406 L 31.089844 13.066406 L 31.089844 21.667969 L 22.488281 21.667969 Z M 32.410156 13.066406 L 41.011719 13.066406 L 41.011719 21.667969 L 32.410156 21.667969 Z M 42.332031 13.066406 L 50.933594 13.066406 L 50.933594 21.667969 L 42.332031 21.667969 Z M 12.566406 22.988281 L 21.167969 22.988281 L 21.167969 31.589844 L 12.566406 31.589844 Z M 22.488281 22.988281 L 31.089844 22.988281 L 31.089844 31.589844 L 22.488281 31.589844 Z M 32.410156 22.988281 L 41.011719 22.988281 L 41.011719 31.589844 L 32.410156 31.589844 Z M 42.332031 22.988281 L 50.933594 22.988281 L 50.933594 31.589844 L 42.332031 31.589844 Z M 12.566406 32.910156 L 21.167969 32.910156 L 21.167969 41.511719 L 12.566406 41.511719 Z M 22.488281 32.910156 L 31.089844 32.910156 L 31.089844 41.511719 L 22.488281 41.511719 Z M 32.410156 32.910156 L 41.011719 32.910156 L 41.011719 41.511719 L 32.410156 41.511719 Z M 42.332031 32.910156 L 50.933594 32.910156 L 50.933594 41.511719 L 42.332031 41.511719 Z M 12.566406 42.832031 L 21.167969 42.832031 L 21.167969 51.433594 L 12.566406 51.433594 Z M 22.488281 42.832031 L 31.089844 42.832031 L 31.089844 51.433594 L 22.488281 51.433594 Z M 32.410156 42.832031 L 41.011719 42.832031 L 41.011719 51.433594 L 32.410156 51.433594 Z M 42.332031 42.832031 L 50.933594 42.832031 L 50.933594 51.433594 L 42.332031 51.433594 Z M 42.332031 42.832031 "/>
<path style=" stroke:none;fill-rule:nonzero;fill:rgb(100%,65.490198%,14.901961%);fill-opacity:1;" d="M 29.101562 15.375 C 28.695312 15.375 28.328125 15.625 28.175781 16.003906 L 18.324219 40.632812 L 12.753906 31.71875 C 12.570312 31.425781 12.25 31.25 11.90625 31.25 L 7.9375 31.25 C 7.578125 31.246094 7.242188 31.433594 7.058594 31.746094 C 6.878906 32.058594 6.878906 32.441406 7.058594 32.753906 C 7.242188 33.066406 7.578125 33.253906 7.9375 33.25 L 11.351562 33.25 L 17.671875 43.363281 C 17.871094 43.683594 18.234375 43.863281 18.609375 43.828125 C 18.984375 43.796875 19.308594 43.554688 19.449219 43.203125 L 29.09375 19.09375 L 40.078125 47.167969 C 40.230469 47.546875 40.597656 47.800781 41.007812 47.800781 C 41.417969 47.804688 41.785156 47.554688 41.9375 47.171875 L 49.050781 29.398438 L 50.699219 32.695312 C 50.867188 33.035156 51.214844 33.25 51.59375 33.25 L 55.5625 33.25 C 55.921875 33.253906 56.257812 33.066406 56.441406 32.753906 C 56.621094 32.441406 56.621094 32.058594 56.441406 31.746094 C 56.257812 31.433594 55.921875 31.246094 55.5625 31.25 L 52.210938 31.25 L 49.84375 26.511719 C 49.667969 26.160156 49.300781 25.941406 48.90625 25.960938 C 48.511719 25.976562 48.164062 26.222656 48.019531 26.585938 L 41.019531 44.085938 L 30.035156 16.011719 C 29.886719 15.625 29.515625 15.375 29.101562 15.375 Z M 29.101562 15.375 "/>
</g>
</svg>
